IMB-X-Files/The-Ambassadors-Assets/66101551f95637151b139118_﹟28.svg

<svg fill="none" height="104" viewBox="0 0 104 104" width="104" xmlns="http://www.w3.org/2000/svg"><path d="m58.934 64.419 4.1738-.3565m0 0 4.1738-.3565m-4.1738.3565.3514 4.2319m-.3514-4.2319-.3514-4.232m.3514 4.232-2.7029 3.2445m2.7029-3.2445 2.7029-3.2446m-2.7029 3.2446 3.1998 2.7403m-3.1998-2.7403-3.1998-2.7404m-22.6426-21.6508 4.1739-.3565m0 0 4.1738-.3565m-4.1738.3565.3513 4.232m-.3513-4.232-.3514-4.232m.3514 4.232-2.7029 3.2446m2.7029-3.2446 2.7029-3.2446m-2.7029 3.2446 3.1998 2.7404m-3.1998-2.7404-3.1998-2.7404m57.5324-16.2122c5.1881 7.3792-10.2041 27.526-34.3787 44.9991s-47.9775 25.6558-53.16522 18.2766c-5.18776-7.3791 10.20412-27.5259 34.37872-44.999s47.9775-25.6559 53.1652-18.2767zm-9.5668-10.40836c6.8947 5.76626-2.8303 29.26546-21.7213 52.48696s-39.7945 37.3718-46.6892 31.6055c-6.8947-5.7662 2.8303-29.2654 21.7213-52.4869s39.7945-37.37179 46.6892-31.60556z" stroke="#ffcf54" stroke-linecap="round" stroke-linejoin="round"/></svg>

<svg width="104" height="104" viewBox="0 0 104 104" fill="none" xmlns="http://www.w3.org/2000/svg">
    <path
        d="M58.934 64.419L63.1078 64.0625M63.1078 64.0625L67.2816 63.706M63.1078 64.0625L63.4592 68.2944M63.1078 64.0625L62.7564 59.8305M63.1078 64.0625L60.4049 67.307M63.1078 64.0625L65.8107 60.8179M63.1078 64.0625L66.3076 66.8028M63.1078 64.0625L59.908 61.3221M37.2654 39.6713L41.4393 39.3148M41.4393 39.3148L45.6131 38.9583M41.4393 39.3148L41.7906 43.5468M41.4393 39.3148L41.0879 35.0828M41.4393 39.3148L38.7364 42.5594M41.4393 39.3148L44.1422 36.0702M41.4393 39.3148L44.6391 42.0552M41.4393 39.3148L38.2395 36.5744M95.7719 20.3622C100.96 27.7414 85.5678 47.8882 61.3932 65.3613C37.2186 82.8344 13.4157 91.0171 8.22798 83.6379C3.04022 76.2588 18.4321 56.112 42.6067 38.6389C66.7813 21.1658 90.5842 12.983 95.7719 20.3622ZM86.2051 9.95384C93.0998 15.7201 83.3748 39.2193 64.4838 62.4408C45.5928 85.6623 24.6893 99.8126 17.7946 94.0463C10.8999 88.2801 20.6249 64.7809 39.5159 41.5594C58.4069 18.3379 79.3104 4.18761 86.2051 9.95384Z"
        stroke="#FFCF54" stroke-linecap="round" stroke-linejoin="round" />
</svg>
